!!!COM: Music21
!!!OTL: jig_Hard-Road-To-Passage--The
!!!OMV: jig_Hard-Road-To-Passage--The
**kern
*clefG2
*k[f#c#]
*D:
*M6/8
=1
8ddL
8cc#
8aJ
8aL
8g
8eJ
=
4.f#
8gL
8e
8aJ
=
8dL
8e
8dJ
8dL
8f#
8aJ
=
8bL
8a
8f#J
8eL
8f#
8aJ
=
8ddL
8cc#
8aJ
8aL
8g
8eJ
=
4.f#
8gL
8e
8aJ
=
8dL
8e
8dJ
8dL
8f#
8aJ
!!linebreak:original
=
8bL
8a
8f#J
4d
8a
=||
*M6/8
8ddL
8cc#
8aJ
8aL
8g
8eJ
=
4.f#
8gL
8e
8aJ
=
8dL
8e
8dJ
8dL
8f#
8aJ
=
8bL
8a
8f#J
8eL
8f#
8aJ
=
8ddL
8cc#
8aJ
8aL
8g
8eJ
!!linebreak:original
=
4.f#
8gL
8e
8aJ
=
8dL
8e
8dJ
8dL
8f#
8aJ
=
8bL
8a
8f#J
4d
8a
=||
8ddL
8cc#
8ddJ
8aaL
8ff#
8ddJ
=
8ccnL
8b
8cc#XJ
8ggL
8ee
8cc#J
=
8ddL
8cc#
8ddJ
8aaL
8ff#
8ddJ
=
8bL
8a
8f#J
8eL
8f#
8aJ
!!linebreak:original
=
8ddL
8cc#
8ddJ
8aaL
8ff#
8ddJ
=
8ccnL
8b
8cc#XJ
8ggL
8ee
8cc#J
=
4.ff#
8bbL
8aa
8ff#J
=
8bL
8a
8f#J
4d
8a
=||
8ddL
8cc#
8ddJ
8aaL
8ff#
8ddJ
=
8ccnL
8b
8cc#XJ
8ggL
8ee
8cc#J
!!linebreak:original
=
8ddL
8cc#
8ddJ
8aaL
8ff#
8ddJ
=
8bL
8a
8f#J
8eL
8f#
8aJ
=
8ddL
8cc#
8ddJ
8aaL
8ff#
8ddJ
=
8ccnL
8b
8cc#XJ
8ggL
8ee
8cc#J
=
4.ff#
8bbL
8aa
8ff#J
=
8bL
8a
8f#J
4d
8a
=||
*-
